!!!OTL: 992. Die Siebenspruenge.
!!!ODT: 1856
!!!ARE: Europa, Mitteleuropa, Deutschland, Westfalen, Soest
!!!SCT: E0992
!!!TXL: @@DE
!!!YEM: Copyright 1995, estate of Helmut Schaffrath.
**kern	**text
*ICvox	*
*M2/4	*
*k[f#]	*
*G:	*
=1	=1
!LO:TX:a:t=Uralter Volkstanz.	!
!LO:TX:a:t=Gegend von Soeſt (Weſtfalen). 1856.	!
!LO:TX:a:t=A. Aus Weſtfalen.	!
{8g	Tanʒ
8b/	mir
8dd	'mal
8b	die
=2	=2
8cc	Sie-
8a	-benn-
8b/	-ſprün-
8g}	-ge,
=3	=3
{8g	tanʒ
8b/	mir
8dd	'mal
8b	die
=4	=4
4cc	Sie-
4b}	-ben!
=5	=5
{8g	Tanʒ
8b/	mir
8dd	'mal
8b	die
=6	=6
8cc	Sie-
8a	-benn-
8b/	-ſprün-
8g}	-ge,
=7	=7
{8g	tanʒ
8b	mir
8dd	'mal
8b	die
=8	=8
4cc	Sie-
4b}	-ben!
=9	=9
{8a	Wer
16aL	die
16bJ	.
8a	ſie-
16a	-ben
16b	nicht
=10	=10
8a	tan-
16aL	-ʒen
16bJ	.
4a}	kann,
=11	=11
{8a	der
16aL	muß
16bJ	.
8a	tan-
8a	-ʒen
=12	=12
8a	was
8g	er
8f#	kann.
16r}	.
{16dd	Juch-
=13	=13
4b	-he!
8r	.
8dd	.
=14	=14
4b	.
4r}	.
==	==
!!!AGN: Tanz - Lied, Reigen, Siebensprung
!!!ONB: ESAC (Essen Associative Code) Database: ERK2
!!!AMT: simple duple
!!!AIN: vox
!!!EED: Helmut Schaffrath
!!!EEV: 1.0
!!!GTL: Tanz- und Spiellieder
!!!URL-scan: https://rosdok.uni-rostock.de/mcrviewer/recordIdentifier/rosdok_ppn745177662/iview2/phys_0760.iview2?x=25.14321134096099&y=586.5140931936912&scale=0.6546206717328796&rotation=0&layout=singlePageLayout
!!!ENC: Anna Maria Matuszewska
!!!EEV: 2024/12/20
*-	*-
